X:16462
T:The Bear Dance
M:2/4
L:1/8
Q:300
C:Trad Belgian
R:polka
K:Am
eA A2|eA A>B|cc Bc|dd cd|!
ee dd|cc B2|A/2B/2c BG|A2 A2:|!
A/2B/2c A/2B/2c|BG G2|A/2B/2c A/2B/2c|d2 cd|!
ea ea|ea e>d|cA BG|A2 A2:|!
